X:11629
T:Nancy Dawson's Hornpipe - for a Country Dance
M:2/4
L:1/8
K:G
G>G Bscs|dB GB|A3 A>B|AF D3|GG Bscs|dB GB|AG FE|D2 D2:|!
A3 A>B|AF D2|d3 de|d>B G2|csBs cd|ef ge|dB AF|G2G2:|


